X:430
T: Tom Morrison's Favorite
S: "Johnny O'Leary of Sliabh Luachra" (#264)
Z: B.Black
L: 1/8
M: 6/8
R: jig
K: Ador
cBA GED|EDE A/G/AB|cBc Adc|BAB GBd|
gfg e/f/ge|dBG Bcd|ecA GED|EDE A/B/AB|
cBA GED|EAD A2B|cBc Adc|BAB GBd|
gfg e/f/ge|dBG Bcd|ecA GED|EAG A3||
aea aed|cAA Aef|gBB gdc|BAB GAB|
c3 dcd|edc B/=c/^cd|ecA BED|1 EAG A3 :|2\
EAG A2B||
